X: 1162
T: Isfahân Seyir
C: Şefik Gürmeriç
O: Turkey
F: http://compmusic.upf.edu/node/140
N: isfahan--seyir--sofyan--1--sefik_gurmeric
N: makam= isfahan
N: form= seyir
N: usul= sofyan = 4/4
M: 4/4
L: 1/16
K: C _2/4B   
Q: 1/4=60
%%MIDI tuningsystem comma53
d6^c2 =B4 c4  | d8 A8  | =B2^c2 B4 c2d2 c4  | \
w:   |   |   | 
d12 z4  | d4 e4 e4 e4  | f2e2 d2e2 d4 c2B2  | 
w:   |   |   | 
z2g2 ^f2g2 =fed2 eed2  | d6A2 =B2^c2 d4  | \
w:   |   | 
z4 d4 a4 a4  | g2a=b a2g2 ^3/4f3e d4  | 
w:   |   | 
c2d2 e2f2 gagf e2d2  | d2c2 B2d2 c4 B4  | \
w:   |   | 
z4 B2c2 d4 e2f2  | 
w:   | 
g3f e2d2 c2B2 A2B2  | d4 c2B2 B2A2 AcBA  | \
w:   |   | 
A12 z4  | |


